icons/assets/dark/vue.svg

<svg width="48" height="48" viewBox="0 0 48 48" fill="none" xmlns="http://www.w3.org/2000/svg">
<path d="M9.56618 7.21924C9.13498 6.35427 8.08422 6.00262 7.21924 6.43382C6.35427 6.86502 6.00262 7.91578 6.43382 8.78076L9.56618 7.21924ZM23.9523 40L22.3861 40.7808C22.6819 41.374 23.2874 41.7492 23.9502 41.75C24.6131 41.7508 25.2195 41.377 25.5166 40.7845L23.9523 40ZM41.5643 8.78449C41.9976 7.92054 41.6484 6.86895 40.7845 6.43569C39.9205 6.00243 38.8689 6.35156 38.4357 7.21551L41.5643 8.78449ZM17.5423 7.21924C17.1111 6.35427 16.0604 6.00262 15.1954 6.43382C14.3304 6.86502 13.9788 7.91578 14.41 8.78076L17.5423 7.21924ZM23.9523 24L22.3861 24.7808L23.9476 27.9131L25.5166 24.7845L23.9523 24ZM33.5405 8.78449C33.9737 7.92054 33.6246 6.86895 32.7606 6.43569C31.8967 6.00243 30.8451 6.35156 30.4118 7.21551L33.5405 8.78449ZM6.43382 8.78076L22.3861 40.7808L25.5185 39.2192L9.56618 7.21924L6.43382 8.78076ZM25.5166 40.7845L41.5643 8.78449L38.4357 7.21551L22.388 39.2155L25.5166 40.7845ZM14.41 8.78076L22.3861 24.7808L25.5185 23.2192L17.5423 7.21924L14.41 8.78076ZM25.5166 24.7845L33.5405 8.78449L30.4118 7.21551L22.388 23.2155L25.5166 24.7845Z" fill="#62646A"/>
</svg>

<svg width="48" height="48" fill="none" xmlns="http://www.w3.org/2000/svg"><path d="M9.566 7.22a1.75 1.75 0 00-3.132 1.56l3.132-1.56zM23.952 40l-1.566.78a1.75 1.75 0 003.13.005L23.953 40zM41.564 8.784a1.75 1.75 0 10-3.128-1.568l3.128 1.568zM17.542 7.22a1.75 1.75 0 10-3.132 1.562l3.132-1.562zM23.952 24l-1.566.78 1.562 3.133 1.569-3.128L23.952 24zM33.54 8.784a1.75 1.75 0 00-3.128-1.568l3.129 1.568zM6.434 8.781l15.952 32 3.133-1.562-15.953-32-3.132 1.562zm19.083 32.004l16.047-32-3.128-1.57-16.048 32 3.129 1.57zM14.41 8.78l7.976 16 3.133-1.562-7.977-16-3.132 1.562zm11.107 16.004l8.024-16-3.13-1.57-8.023 16 3.129 1.57z" fill="#62646A"/></svg>
